X:86
T:Mariam Matrem Virginem
C:Llibre Vermell de Montserrat
R:Livre
O:XIVe
M:C|
L:1/4
K:G
%%continueall 1
%%staves [1 (2 3)]
V:1
z2zA | c2d2 | e2g/fe/ | e/d/c/B/ B/AG/ | A2zB |
d/cBcA/ | G4 | z2zA | c2d2 | e2g/fe/ |
e/d/c/B/ B/AG/ | A2zA | c/BA/^G2 | A4- | A2ze |
a2ef | gf2e | e2d2 | e2ze | g2 a/g/f/g/ |
e4 | z2ze | a2ef | gf2e | e2d2 | e2ze |
g2a/g/f/g/ | e2zd | c2d2 | e2g/fe/ | e/d/c/B/ B/AG/ |
A2zB | d/cBcA/  | G4 | z2zA | c2d2 |
e2g/fe/ | e/d/c/B/ B/AG/ | A2zB | c/BA/^G2 | A4- | A4 |]
V:2
a2g2 | a3g | b4 | g4 | ae2f 
gfed | c4 | e4 | =fg2a | b4 |
g4 | a2=f2 | e3d | e4- | e4 |
A4 | e4 | fg2a | b4 | c'b2a |
b4- | b4 | A4 | e4 | fg2a | b4 |
c'b2a | b4 | abc'a | b4 | g4 |
ae2f | gfed | c4 | e4 | =fg2a |
b4 | g4 | a2=f2 | e3 d | e4- | e4 |]
V:3
A2e2 | =f4 | e4- | e4 | A4 |
G2AB | c4- | c4 | =f4 | e4- |
e4 | A2d2 | c2B2 | A4-A4 |
a4 | g4 | g2f2 | e4 | c2d2 |
e4- | e4 | a4 | g4 | g2f'2 | e4 |
c2d2 | e4 | =f4 | e4- | e4 |
A4 | G2AB | c4- | c4 | =f4 |
e4- | e4 | A2d2 | c2B2 | A4- | A4 |]




%%header "$P0	 $IR 	$P1"
%%footer $D - Éditions Galouvielle - 2009 - À usage librement privé dans le cadre familial

